X: 041242
T: Danny Ab's #2
S: "Johnny O'Leary of Sliabh Luachra" (#177)
Z: B.Black
L: 1/8
M: 12/8
Q: 350
R: slide
K: D
A2e fed BAB d2B|A2e fed B2G GAB|
A2e fed BAB d2B|BAB d2e B2A A3 :|
eaa a2b a2g e2d|eag a2b a2g e2f|
gfg gfe dBA G2A|BAB d2e B2A A3 :|
